X:1
T:Qui est celluy
T:Jean de Castro
T:Source : La fleur des chansons à 3---Louvain---P.Phalèse---1574. Editor : André Vierendeels (14/08/18) Notes : Original clefs : C1, C1, C4 Original note values have been halved Edditorial accidentals above the staff
T:Qui est celluy
T:©
T:©
T:©
T:©
C:Jean de Castro
Z:©
%%score [ 1 2 3 ]
L:1/8
Q:1/4=75
M:2/2
K:F
V:1 treble nm="Soprano 1" snm="S 1"
V:2 treble nm="Soprano 2" snm="S 2"
V:3 treble-8 nm="Tenor" snm="T"
V:1
 F2 cc AccB | AG z F FGAG | FE D2 Cc=Bc- | cc A2 z c2 c | ccB G2 F E2 | FF c3 ccc | A4 z ddc | %7
w: Qui est cel- luy qui ne ca-|res- se, qui est cel- luy qui|ne ca- res se du Ca- che-|* ra- nois, du Ca-|che- ra- nois, la no- bles-|se ie ne m'e- sti- me'au|ranc des bien- heu-|
 BG A2 BGAB | cBAD EGGF | GD E2 F c2 B | G c2 G2 B2 F- | F A2 c2 G2 d- | d A2 c2 GGB- | %13
w: reux le moin- dre, puis- qu'au sien|no- stre sang, puis- qu'au sien no- stre|sang, puis- qu'au sien, no- stre|sang y m'en a vou-|* lu ioin- dre, y|_ m'en a vou- lu ioin-|
 BF z A2 G F2- | FE/D/ E2 F2 F2 | E2 D3 C D2 | E2 D4 C2 | z2 F2 E2 D2- | DC D2 D2 E2 | %19
w: * dre, ioin- * *|* * * * dre, d'un|neud sain- te- ment|so- len- nel,|d'un neud sain-|* te- ment so- len-|
 FCCC c2 z A- | A G2 G F2 E2 | D2 D2 F2 z F | E2 F3 E/D/ E2 | F8 |] %24
w: nel dont en au- rons, dont|_ en au- rons los|e- ter- nel, los|e- ter- * * *|nel.|
V:2
 z4 z2 F2 | cc A2 z dcd- |"^-natural""^-natural" d c3/2B/4A/4B c G2 G | GG c2 z A2 A | %4
w: Qui|est cel- luy qui ne ca-|* res- * * * se du Ca-|che- ra- nois, du Ca-|
 AA d2 cA G2 | A4 z AAA | cc d2 G B2 G | FG ^F2 G2 z G | ABcd G2 z A | Bdc>c AGAB | c>c G2 B2 F2 | %11
w: che- ra- nois, la no- bles-|se, ie ne m'e-|sti- me'au ranc des bien- heu-|reux le moin- dre, puis-|qu'au sien no- stre sang, puis-|qu'au sien no- stre sang, puis- qu'au sien,|no- stre sang y m'en|
 A2 c2 G2 B2 | A2 c2 G2 B2 | F3 G ABcB/A/ | G>F G2 A2 A2 | G4 F3 D | G2 F2 E4 | F2 z A2 G2 F- | %18
w: a vou- lu ioin-|dre, y m'en a|vou- lu ioin- * * * *|* * * dre, d'un|neud sain- te-|ment so- len-|nel, d'un neud sain-|
 FF F2 B2 B2 | A2 z F FF c2- | c2 d4 c2- | c2 B2 c2 z A | G>GAc B2 B2 | A8 |] %24
w: * te- ment so- len-|nel, dont en au- rons|_ los e-|* ter- nel, los|e- ter- nel, los e- ter-|nel.|
V:3
 z2 c2 ff d2 | z cdd B2 FB- | Bc A2 c2 z c- | cccc f4 | z4 cF c2 | F2 z F f3 f | ff d2 c B2 c | %7
w: Qui est cel- luy|qui est cel- luy qui ne|_ ca- res- se du|_ Ca- che- ra- nois,|la no- bles-|se ie m'en e-|sti- me'au ranc des bien- heu-|
 de d2 G2 z2 | z GAB c2 d2 | G2 z c defg | c2 c2 G2 B2 | F2 A2 c2 G2 | d2 A2 c2 G2 | B2 F3 GAB | %14
w: reux le moin- dre,|puis- qu'au sien no- stre|sang, puis- qu'au sien, no- stre|sang y m'en a|vou- lu ioin- dre,|y m'en a vou-|lu ioin- * * *|
 c4 F2 F2 | c2 B3 A B2 | c2 d2 A4 | z2 d2 c2 B2- | BA B2 G2 G2 | F4 z FFF | c2 G2 B2 c2 | %21
w: * dre, d'un|neud sain- te- ment|so- len- nel,|d'un neud so-|* * * * len-|nel, dont en au-|rons los e- ter-|
 G4 z FFF | c2 A2 G2 G2 | F8 |] %24
w: nel, dont en au-|rons los e- ter-|nel.|

